sites/kit.svelte.dev/src/routes/logo-appengine.svg

<svg width="122" height="110" viewBox="0 0 122 110" fill="none" xmlns="http://www.w3.org/2000/svg">
<g opacity="0.8">
<path d="M26.7112 102.729L1.85268 59.9084C-0.0924933 56.5577 -0.0924933 52.4295 1.85268 49.0788L26.7112 6.25854C28.6563 2.90786 32.2512 0.84375 36.1416 0.84375H85.8586C89.7489 0.84375 93.3438 2.90786 95.2889 6.25854L120.147 49.0788C122.093 52.4295 122.093 56.5577 120.147 59.9084L95.2889 102.729C93.3438 106.079 89.7489 108.144 85.8586 108.144H36.1416C32.2512 108.144 28.6564 106.079 26.7112 102.729Z" fill="#676778"/>
</g>
<path opacity="0.07" d="M92.882 109.157L115.17 71.3726L96.2896 52.5957L95.6337 52.3946L62.5934 19.5352L55.8111 29.3987L61.4935 35.05L47.0325 40.2887L41.3821 54.5841L35.8366 49.0689L25.8464 57.7951L77.3526 109.019L92.882 109.157Z" fill="black"/>
<path d="M60.9991 32.7925C48.9463 32.7925 39.176 42.5086 39.176 54.4972C39.176 66.4824 48.9463 76.2019 60.9991 76.2019C73.0515 76.2019 82.8216 66.4824 82.8216 54.4972C82.8216 42.5086 73.0515 32.7925 60.9991 32.7925ZM60.9991 70.9639C51.8529 70.9639 44.4389 63.5911 44.4389 54.4972C44.4389 45.4011 51.8528 38.0276 60.9991 38.0276C70.1447 38.0276 77.5576 45.401 77.5576 54.4972C77.5576 63.5911 70.1447 70.9639 60.9991 70.9639Z" fill="white"/>
<path d="M95.2265 51.9267L86.1282 49.083C86.5067 50.829 86.7106 52.6391 86.7106 54.4962C86.7106 55.795 86.6114 57.0707 86.4245 58.3169H95.2265C96.0397 58.0801 96.5833 57.578 96.5833 56.8322V53.4093C96.5833 52.6646 96.0397 52.1484 95.2265 51.9267Z" fill="white"/>
<path d="M60.993 28.9236C62.821 28.9236 64.6028 29.1163 66.323 29.4777L63.0614 20.4621C62.8232 19.6516 62.3178 19.1116 61.5685 19.1116H60.2056C59.4563 19.1116 58.936 19.6516 58.7131 20.4621L55.8794 29.4313C57.5318 29.0998 59.2413 28.9236 60.993 28.9236Z" fill="white"/>
<path d="M35.287 54.4962C35.287 52.6391 35.4909 50.8296 35.8689 49.083L26.771 51.9267C25.9579 52.1484 25.4148 52.6646 25.4148 53.4104V56.8332C25.4148 57.5779 25.9579 58.08 26.771 58.3168H35.5736C35.3861 57.0713 35.287 55.795 35.287 54.4962Z" fill="white"/>
<path d="M68.7913 47.4134L66.7268 49.4659V49.4614C65.2447 47.9885 63.2657 47.1753 61.1693 47.1753C59.0678 47.1753 57.0945 47.9908 55.6102 49.4659C52.5456 52.513 52.5456 57.4746 55.6102 60.5224L53.5456 62.5739C55.4989 64.5148 58.1949 65.7178 61.1671 65.7178C67.1144 65.7178 71.9527 60.9071 71.9527 54.9914C71.9527 52.0341 70.7434 49.3536 68.7913 47.4134ZM64.5307 58.0106C63.5574 58.9809 62.277 59.4665 61.0001 59.4665C59.7192 59.4665 58.4421 58.9809 57.4666 58.0106C55.5144 56.0691 55.5144 52.9233 57.4666 50.9812C58.4421 50.0099 59.7192 49.5271 61.0001 49.5271C62.277 49.5271 63.5574 50.01 64.5307 50.9812C66.483 52.9222 66.483 56.0691 64.5307 58.0106Z" fill="white"/>
</svg>

<svg xmlns="http://www.w3.org/2000/svg" width="122" height="110" fill="none"><path fill="#676778" d="M26.711 102.729 1.853 59.909a10.778 10.778 0 0 1 0-10.83L26.71 6.259A10.9 10.9 0 0 1 36.14.844h49.72a10.9 10.9 0 0 1 9.43 5.415l24.858 42.82a10.774 10.774 0 0 1 0 10.83l-24.858 42.82a10.902 10.902 0 0 1-9.43 5.415H36.142a10.9 10.9 0 0 1-9.43-5.415Z"/><path fill="#000" d="m92.882 109.157 22.288-37.784-18.88-18.777-.656-.201-33.04-32.86L55.81 29.4l5.682 5.651-14.46 5.239-5.65 14.295-5.546-5.515-9.99 8.726 51.506 51.224 15.529.138Z" opacity=".07"/><path fill="#fff" d="M61 32.793c-12.054 0-21.824 9.716-21.824 21.704 0 11.985 9.77 21.705 21.823 21.705 12.052 0 21.823-9.72 21.823-21.705 0-11.988-9.77-21.704-21.823-21.704Zm0 38.171c-9.147 0-16.561-7.373-16.561-16.467 0-9.096 7.414-16.47 16.56-16.47 9.146 0 16.559 7.374 16.559 16.47 0 9.094-7.413 16.467-16.559 16.467Zm34.227-19.037-9.099-2.844a25.522 25.522 0 0 1 .296 9.234h8.803c.813-.237 1.356-.739 1.356-1.485V53.41c0-.744-.543-1.26-1.356-1.482ZM60.993 28.924c1.828 0 3.61.192 5.33.554l-3.262-9.016c-.238-.81-.743-1.35-1.493-1.35h-1.362c-.75 0-1.27.54-1.493 1.35l-2.834 8.97a25.973 25.973 0 0 1 5.114-.508ZM35.287 54.496c0-1.857.204-3.666.582-5.413l-9.098 2.844c-.813.221-1.356.738-1.356 1.483v3.423c0 .745.543 1.247 1.356 1.484h8.803a25.657 25.657 0 0 1-.287-3.82Z"/><path fill="#fff" d="m68.791 47.413-2.064 2.053v-.005a7.842 7.842 0 0 0-5.558-2.286 7.836 7.836 0 0 0-5.559 2.29 7.798 7.798 0 0 0 0 11.057l-2.064 2.052a10.786 10.786 0 0 0 7.621 3.144c5.947 0 10.786-4.81 10.786-10.727 0-2.957-1.21-5.637-3.162-7.578Zm-4.26 10.598A4.989 4.989 0 0 1 61 59.467a4.992 4.992 0 0 1-3.534-1.456 4.95 4.95 0 0 1 0-7.03A4.986 4.986 0 0 1 61 49.527c1.277 0 2.557.483 3.53 1.454a4.95 4.95 0 0 1 0 7.03Z"/></svg>
